X: 12720
T: Father John's Jubilee
R: jig
M: 6/8
K: Gmajor
|:d|edB dBA|GBA GED|GBd gdB|edB ABd|
e/f/ge dBA|~G3 GBd|f2a gfd|cAd G2:|
|:D|GBd ~g3|age dBA|~B3 GBd|edB AGA|
B/c/dB ~A3|GBd e2d|fga gfd|cAd G2:|

